svg/rewind_45.svg

<svg xmlns="http://www.w3.org/2000/svg" viewBox="0 0 24 24"><path d="M12.5 3c4.6 0 8.6 3 10 7.2l-2.4.8C19 7.8 16 5.5 12.5 5.5c-2 0-3.7.7-5.1 1.9L10 10H3V3l2.6 2.6C7.4 4 9.9 3 12.5 3m.5 9h6v2h-4v2h2c1.1 0 2 .9 2 2v2c0 1.1-.9 2-2 2h-4v-2h4v-2h-4zm-8 0v6h4v4h2V12H9v4H7v-4z"/></svg>

<svg xmlns="http://www.w3.org/2000/svg" id="mdi-rewind-45" viewBox="0 0 24 24"><path d="M12.5 3C17.1 3 21.1 6 22.5 10.2L20.1 11C19 7.8 16 5.5 12.5 5.5C10.5 5.5 8.8 6.2 7.4 7.4L10 10H3V3L5.6 5.6C7.4 4 9.9 3 12.5 3M13 12H19V14H15V16H17C18.1 16 19 16.9 19 18V20C19 21.1 18.1 22 17 22H13V20H17V18H13V12M5 12V18H9V22H11V12H9V16H7V12H5Z" /></svg>
